X:146
T:The Welsh Rabbit
M:4/4
L:1/8
Q:180
C:Trad. arr. J.T.
R:Processional
N:Compressed and simplified
K:D
D2 D2 A4|AG FG A2 A2|D2 D2 G4|FE DF E2 E2|D2 D2 A4|AG FG A2 A2|GF EG FE
DF|E2 E2 E4:||:E2 E2 A4|GF ED E2 E2 |DE F2 E2 E2| DE F2 E2 E2 | D2
D2 A4 | BA GB A2 A2 | GF EG FE DF | E2 E2 E4 :||
